
setcps 0.625

do
  d1
    $ off (1/3) (|* gain 0.7) $ s "808:4*8"
    # legato 1
  d2
    $ whenmod 16 14 (|* speed "-1")
    $ s "[mdkick,arbt] ~ [~ mdkick] ~"
  d3
    $ rarely (stut 2 0.7 (1/16))
    $ s "[~ arcp]*2"
  d4
    $ chunk 4 (fast 2)
    $ s "lwperc*8" # gain 0.9 # n (irand 44) # sustain 0.125
    # accelerate 0.2
  d5
    $ chunk 4 (slow 2) 
    $ (# begin ("{0.3 0.5 0.75 0.77 0.25}%8" + 0.2))
    $ ply "<2 4 [2 3]>"
    $ chop 32 $ loopAt 8
    $ s "bev" # legato 1


