


do
  d1
    $ sometimesBy "0.18" (stutWith "<3 4 5>" (1/16) (|* speed 1.5))
    $ s "{bkbass(3,8)}%2" # legato 1.5 # n (irand 44)
    # up "<c'maj7 f'maj7>" # room 0.8 # sz 0.8 # gain 0.7
  d2
    $ degradeBy "0 0.25"
    $ s "arbt(6,16,[0 1 0 3])" # cut 2
  d3
    $ fast (randcat[1,1.5,2])
    $ s "arhh*8" # gain "[1 0.9 0.95 0.9]*2"
  d4
    $ rarely (ply 4)
    $ chunk 4 (fast 2)
    $ s "fmkick(5,8)" # speed 4 # n (irand 17)
    # shape 0.5 # cut 4

